X: 1
T:Mazurka des familles (version Pauvert)
R:Mazurka
M:3/4
L:1/8
K:C
G ce|g3 e fa|g2 ge ge|f2 fd ec|d3 G ce|\
g3 e fa|g2 ge ge|fd ec dB|c3:|
|:G Bc|d2 dc Bc|e2 ec eg|fe d^c df|e2 c2 Bc|\
d2 dc Bc|e2 ec eg|fe dB dB|c3:|
